svg/color/woo.svg

<svg width="32" height="32" viewBox="0 0 32 32" fill="none" xmlns="http://www.w3.org/2000/svg">
<path d="M16 32C24.8368 32 32 24.8368 32 16C32 7.1632 24.8368 0 16 0C7.1632 0 0 7.1632 0 16C0 24.8368 7.1632 32 16 32Z" fill="#20252F"/>
<path d="M26.152 9.8496H22.7584L21.1936 14.96H24.5408L26.152 9.8496Z" fill="white"/>
<path d="M20.0608 18.6608L18.3888 14.7088C18.2016 14.2208 17.872 13.8016 17.4432 13.504C17.0144 13.2064 16.504 13.048 15.9808 13.048C15.464 13.048 14.9584 13.2016 14.5312 13.4928C14.104 13.7824 13.7728 14.1952 13.5824 14.6752L11.8432 18.6528L9.1888 9.8544H5.8496L9.816 22.7616C9.8896 22.9984 10.0368 23.2048 10.2352 23.3504C10.4336 23.4976 10.6752 23.576 10.9216 23.576H12.84C13.072 23.5776 13.3008 23.5104 13.4944 23.3808C13.688 23.2512 13.8384 23.0672 13.9248 22.8528L15.9808 17.792L18.0704 22.8688C18.1568 23.0832 18.3056 23.2656 18.4976 23.3936C18.6896 23.5232 18.9136 23.592 19.1456 23.592H21.0336C21.28 23.592 21.52 23.5136 21.7184 23.3664C21.9168 23.2208 22.064 23.0144 22.1376 22.7792L24.0208 16.664H20.688L20.0608 18.6608Z" fill="white"/>
</svg>

<svg width="32" height="32" viewBox="0 0 32 32" fill="none" xmlns="http://www.w3.org/2000/svg"><path d="M16 32c8.837 0 16-7.163 16-16S24.837 0 16 0 0 7.163 0 16s7.163 16 16 16z" fill="#20252F"/><path d="M26.152 9.85h-3.394l-1.564 5.11h3.347l1.611-5.11zm-6.092 8.81l-1.67-3.95a2.6 2.6 0 00-.946-1.205 2.573 2.573 0 00-3.86 1.171l-1.74 3.978-2.654-8.8H5.85l3.967 12.908a1.156 1.156 0 001.106.814h1.918a1.163 1.163 0 001.085-.723l2.056-5.061 2.09 5.077c.086.214.235.397.427.525.192.13.416.198.648.198h1.888a1.158 1.158 0 001.104-.813l1.883-6.115h-3.333l-.627 1.997z" fill="#fff"/></svg>
